src/assets/duotone/User.svg

<svg width="24" height="24" viewBox="0 0 24 24"  xmlns="http://www.w3.org/2000/svg">
<path opacity="0.4" d="M12 12C14.7614 12 17 9.76142 17 7C17 4.23858 14.7614 2 12 2C9.23858 2 7 4.23858 7 7C7 9.76142 9.23858 12 12 12Z" />
<path d="M12.0002 14.5C6.99015 14.5 2.91016 17.86 2.91016 22C2.91016 22.28 3.13016 22.5 3.41016 22.5H20.5901C20.8701 22.5 21.0901 22.28 21.0901 22C21.0901 17.86 17.0102 14.5 12.0002 14.5Z" />
</svg>

<?xml version="1.0" encoding="UTF-8"?>
<svg width="24" height="24" viewBox="0 0 24 24" xmlns="http://www.w3.org/2000/svg">
 <path d="m12 12c2.7614 0 5-2.2386 5-5s-2.2386-5-5-5c-2.7614 0-5 2.2386-5 5s2.2386 5 5 5z" opacity=".4"/>
 <path d="m12 14.5c-5.01 0-9.09 3.36-9.09 7.5 0 0.28 0.22 0.5 0.5 0.5h17.18c0.28 0 0.5-0.22 0.5-0.5 0-4.14-4.0799-7.5-9.0899-7.5z"/>
</svg>
